src/lib/packages/icons/src/assets/line/location-pin-times.svg

<svg width="24" height="24" viewBox="0 0 24 24" fill="none" xmlns="http://www.w3.org/2000/svg">
<path d="M12 2.25C7.175 2.25 3.25 6.175 3.25 11C3.25 16.118 7.94699 19.2199 11.055 21.2729L11.584 21.624C11.71 21.708 11.855 21.75 12 21.75C12.145 21.75 12.29 21.708 12.416 21.624L12.945 21.2729C16.053 19.2199 20.75 16.118 20.75 11C20.75 6.175 16.825 2.25 12 2.25ZM12.119 20.021L12 20.1001L11.881 20.021C8.871 18.033 4.75 15.311 4.75 11C4.75 7.002 8.002 3.75 12 3.75C15.998 3.75 19.25 7.002 19.25 11C19.25 15.311 15.128 18.034 12.119 20.021ZM14.53 9.53003L13.06 11L14.53 12.47C14.823 12.763 14.823 13.238 14.53 13.531C14.384 13.677 14.192 13.751 14 13.751C13.808 13.751 13.616 13.678 13.47 13.531L12 12.061L10.53 13.531C10.384 13.677 10.192 13.751 10 13.751C9.808 13.751 9.616 13.678 9.47 13.531C9.177 13.238 9.177 12.763 9.47 12.47L10.94 11L9.47 9.53003C9.177 9.23703 9.177 8.76199 9.47 8.46899C9.763 8.17599 10.238 8.17599 10.531 8.46899L12.001 9.93896L13.471 8.46899C13.764 8.17599 14.239 8.17599 14.532 8.46899C14.825 8.76199 14.823 9.23703 14.53 9.53003Z" fill="currentColor"/>
</svg>

<svg xmlns="http://www.w3.org/2000/svg" width="24" height="24" fill="none"><path fill="currentColor" d="M12 2.25c-4.825 0-8.75 3.925-8.75 8.75 0 5.118 4.697 8.22 7.805 10.273l.529.351a.75.75 0 0 0 .832 0l.529-.351C16.053 19.22 20.75 16.118 20.75 11c0-4.825-3.925-8.75-8.75-8.75Zm.119 17.771-.119.08-.119-.08C8.871 18.033 4.75 15.311 4.75 11c0-3.998 3.252-7.25 7.25-7.25s7.25 3.252 7.25 7.25c0 4.311-4.122 7.034-7.131 9.021ZM14.53 9.53 13.06 11l1.47 1.47a.75.75 0 0 1-1.06 1.061L12 12.061l-1.47 1.47a.748.748 0 0 1-1.06 0 .75.75 0 0 1 0-1.061L10.94 11 9.47 9.53a.75.75 0 0 1 1.061-1.061l1.47 1.47 1.47-1.47A.75.75 0 1 1 14.53 9.53Z"/></svg>
